X: 1
T:In The Mood  "CYMRU"
M:C|
L:1/8
Q:80
C:
S:Jazz
K:HP
|: | {g}A3/4d/4f3/4{g}A/4d3/4f/4{g}A3/4d/4|
{gfg}f3/4A/4d3/4f/4-f2|
{g}A3/4d/4{gfg}f3/4{g}A/4d3/4f/4A3/4d/4|  !
{gfg}f3/4A/4d3/4{gfg}f/4-f2| |
G3/4B/4d3/4G/4{g}B3/4d/4{g}G3/4B/4|
d3/4G/4{g}B3/4d/4-d2|  !
{g}A3/4d/4{gfg}f3/4{g}A/4d3/4f/4A3/4d/4|
{gfg}f3/4A/4d3/4{gfg}f/4-f2| |
{g}A3/4c/4{g}e3/4A/4{g}c3/4e/4A3/4{g}c/4|  !
{g}e3/4A/4c3/4{g}e/4-e2|
{g}A3/4{d}A/4{e}A3/4{d}A/4{g}Bc|
{Gdc}d2f2:|  !
